app/communities-configs/polygon/images/polygon-logo.svg

<svg width="153" height="32" viewBox="0 0 153 32" fill="none" xmlns="http://www.w3.org/2000/svg">
<path d="M26.9585 9.7759C26.2994 9.36998 25.4425 9.36998 24.7175 9.7759L19.5762 12.8879L16.0828 14.9175L10.9416 18.0296C10.2825 18.4355 9.4256 18.4355 8.70055 18.0296L4.61393 15.5941C3.9548 15.1882 3.4934 14.444 3.4934 13.6321V8.82875C3.4934 8.01691 3.88888 7.27273 4.61393 6.86681L8.63464 4.49894C9.29377 4.09302 10.1506 4.09302 10.8757 4.49894L14.8964 6.86681C15.5555 7.27273 16.0169 8.01691 16.0169 8.82875V11.9408L19.5103 9.84355V6.7315C19.5103 5.91966 19.1149 5.17548 18.3898 4.76956L10.9416 0.30444C10.2825 -0.10148 9.4256 -0.10148 8.70055 0.30444L1.12053 4.76956C0.39548 5.17548 0 5.91966 0 6.7315V15.7294C0 16.5412 0.39548 17.2854 1.12053 17.6913L8.70055 22.1564C9.35969 22.5624 10.2166 22.5624 10.9416 22.1564L16.0828 19.112L19.5762 17.0148L24.7175 13.9704C25.3766 13.5645 26.2335 13.5645 26.9585 13.9704L30.9792 16.3383C31.6384 16.7442 32.0998 17.4884 32.0998 18.3002V23.1036C32.0998 23.9154 31.7043 24.6596 30.9792 25.0655L26.9585 27.5011C26.2994 27.907 25.4425 27.907 24.7175 27.5011L20.6968 25.1332C20.0376 24.7273 19.5762 23.9831 19.5762 23.1712V20.0592L16.0828 22.1564V25.2685C16.0828 26.0803 16.4783 26.8245 17.2034 27.2304L24.7834 31.6956C25.4425 32.1015 26.2994 32.1015 27.0244 31.6956L34.6045 27.2304C35.2636 26.8245 35.725 26.0803 35.725 25.2685V16.2706C35.725 15.4588 35.3295 14.7146 34.6045 14.3087L26.9585 9.7759Z" fill="#7950DD"/>
<path d="M49.6421 29.1225V21.6525C50.4459 22.6725 51.9046 23.2425 53.6016 23.2425C57.9183 23.2425 60.8359 20.1525 60.8359 15.4425C60.8359 10.7325 58.1565 7.6425 53.9588 7.6425C52.0237 7.6425 50.5352 8.3625 49.6421 9.5325V7.8825H45.5039V29.1225H49.6421ZM53.0955 19.6425C50.8627 19.6425 49.4039 17.9625 49.4039 15.4425C49.4039 12.8925 50.8627 11.2125 53.0955 11.2125C55.2687 11.2125 56.7573 12.8925 56.7573 15.4425C56.7573 17.9625 55.2687 19.6425 53.0955 19.6425Z" fill="black"/>
<path d="M70.2325 23.2425C74.847 23.2425 78.1516 19.9425 78.1516 15.4425C78.1516 10.9425 74.847 7.6425 70.2325 7.6425C65.6181 7.6425 62.3135 10.9425 62.3135 15.4425C62.3135 19.9425 65.6181 23.2425 70.2325 23.2425ZM70.2325 19.6425C67.9997 19.6425 66.4814 17.9325 66.4814 15.4425C66.4814 12.9225 67.9997 11.2125 70.2325 11.2125C72.4654 11.2125 73.9837 12.9225 73.9837 15.4425C73.9837 17.9325 72.4654 19.6425 70.2325 19.6425Z" fill="black"/>
<path d="M84.7914 23.0025V1.3125H80.6533V23.0025H84.7914Z" fill="black"/>
<path d="M97.2307 7.8825L94.1048 17.6325L90.9491 7.8825H86.7216L92.1697 22.8825L89.9667 29.1225H93.9262L96.0399 22.9425L101.488 7.8825H97.2307Z" fill="black"/>
<path d="M113.11 9.3825C112.276 8.3325 110.788 7.6425 108.972 7.6425C104.595 7.6425 101.946 10.7325 101.946 15.4425C101.946 20.1525 104.595 23.2425 109.031 23.2425C110.788 23.2425 112.365 22.5825 113.14 21.4725V23.4525C113.14 24.8625 112.217 25.8525 110.966 25.8525H104.059V29.1225H111.621C115.015 29.1225 117.278 27.0525 117.278 23.9025V7.8825H113.11V9.3825ZM109.686 19.6425C107.483 19.6425 106.024 17.9925 106.024 15.4425C106.024 12.8925 107.483 11.2125 109.686 11.2125C111.919 11.2125 113.378 12.8925 113.378 15.4425C113.378 17.9925 111.919 19.6425 109.686 19.6425Z" fill="black"/>
<path d="M127.71 23.2425C132.325 23.2425 135.629 19.9425 135.629 15.4425C135.629 10.9425 132.325 7.6425 127.71 7.6425C123.096 7.6425 119.791 10.9425 119.791 15.4425C119.791 19.9425 123.096 23.2425 127.71 23.2425ZM127.71 19.6425C125.477 19.6425 123.959 17.9325 123.959 15.4425C123.959 12.9225 125.477 11.2125 127.71 11.2125C129.943 11.2125 131.461 12.9225 131.461 15.4425C131.461 17.9325 129.943 19.6425 127.71 19.6425Z" fill="black"/>
<path d="M142.061 23.0025V14.7225C142.061 12.7725 143.341 11.3625 145.157 11.3625C146.883 11.3625 148.044 12.6825 148.044 14.5125V23.0025H152.212V13.5825C152.212 10.1025 150.009 7.6425 146.615 7.6425C144.561 7.6425 142.894 8.5125 142.061 9.9825V7.8825H137.893V23.0025H142.061Z" fill="black"/>
</svg>

<svg width="153" height="32" fill="none" xmlns="http://www.w3.org/2000/svg"><path d="M26.959 9.776c-.66-.406-1.517-.406-2.241 0l-5.142 3.112-3.493 2.03-5.141 3.112c-.66.405-1.516.405-2.241 0l-4.087-2.436c-.66-.406-1.12-1.15-1.12-1.962V8.83c0-.812.395-1.556 1.12-1.962l4.02-2.368c.66-.406 1.517-.406 2.242 0l4.02 2.368c.66.406 1.12 1.15 1.12 1.962v3.112l3.494-2.097V6.732c0-.812-.395-1.557-1.12-1.962L10.942.304C10.282-.1 9.426-.1 8.7.304L1.12 4.77C.395 5.175 0 5.92 0 6.732v8.997c0 .812.395 1.556 1.12 1.962l7.58 4.465c.66.406 1.517.406 2.242 0l5.14-3.044 3.494-2.097 5.142-3.045c.659-.405 1.515-.405 2.24 0l4.021 2.368c.66.406 1.12 1.15 1.12 1.962v4.804c0 .811-.395 1.556-1.12 1.962L26.96 27.5c-.66.406-1.517.406-2.241 0l-4.021-2.368c-.66-.406-1.12-1.15-1.12-1.962V20.06l-3.494 2.097v3.113c0 .811.395 1.556 1.12 1.961l7.58 4.466c.66.405 1.516.405 2.241 0l7.58-4.466c.66-.405 1.121-1.15 1.121-1.962v-8.997c0-.812-.395-1.556-1.12-1.962l-7.646-4.533Z" fill="#7950DD"/><path d="M49.642 29.122v-7.47c.804 1.02 2.263 1.59 3.96 1.59 4.316 0 7.234-3.09 7.234-7.8s-2.68-7.8-6.877-7.8c-1.935 0-3.424.72-4.317 1.89v-1.65h-4.138v21.24h4.138Zm3.453-9.48c-2.232 0-3.691-1.68-3.691-4.2 0-2.55 1.459-4.23 3.691-4.23 2.174 0 3.662 1.68 3.662 4.23 0 2.52-1.488 4.2-3.661 4.2ZM70.233 23.242c4.614 0 7.919-3.3 7.919-7.8s-3.305-7.8-7.92-7.8c-4.614 0-7.919 3.3-7.919 7.8s3.305 7.8 7.92 7.8Zm0-3.6c-2.233 0-3.752-1.71-3.752-4.2 0-2.52 1.519-4.23 3.752-4.23 2.232 0 3.75 1.71 3.75 4.23 0 2.49-1.518 4.2-3.75 4.2ZM84.791 23.003V1.313h-4.138v21.69h4.138ZM97.23 7.883l-3.125 9.75-3.156-9.75h-4.227l5.448 15-2.203 6.24h3.96l2.113-6.18 5.448-15.06h-4.257ZM113.11 9.383c-.834-1.05-2.322-1.74-4.138-1.74-4.377 0-7.026 3.09-7.026 7.8s2.649 7.8 7.085 7.8c1.757 0 3.334-.66 4.109-1.77v1.98c0 1.41-.923 2.4-2.174 2.4h-6.907v3.27h7.562c3.394 0 5.657-2.07 5.657-5.22V7.883h-4.168v1.5Zm-3.424 10.26c-2.203 0-3.662-1.65-3.662-4.2 0-2.55 1.459-4.23 3.662-4.23 2.233 0 3.692 1.68 3.692 4.23 0 2.55-1.459 4.2-3.692 4.2ZM127.71 23.242c4.615 0 7.919-3.3 7.919-7.8s-3.304-7.8-7.919-7.8c-4.614 0-7.919 3.3-7.919 7.8s3.305 7.8 7.919 7.8Zm0-3.6c-2.233 0-3.751-1.71-3.751-4.2 0-2.52 1.518-4.23 3.751-4.23 2.233 0 3.751 1.71 3.751 4.23 0 2.49-1.518 4.2-3.751 4.2ZM142.061 23.003v-8.28c0-1.95 1.28-3.36 3.096-3.36 1.726 0 2.887 1.32 2.887 3.15v8.49h4.168v-9.42c0-3.48-2.203-5.94-5.597-5.94-2.054 0-3.721.87-4.554 2.34v-2.1h-4.168v15.12h4.168Z" fill="#000"/></svg>
